packages/foundations/assets/icons/functional/images/environment/moon_16.svg

<svg width="16" height="16" viewBox="0 0 16 16" fill="none" xmlns="http://www.w3.org/2000/svg">
<g clip-path="url(#clip0_185_832)">
<path fill-rule="evenodd" clip-rule="evenodd" d="M8.60358 2.76011L8.88776 2.15873C8.98215 1.959 8.89675 1.72056 8.69702 1.62618C8.6379 1.59824 8.57284 1.58522 8.50753 1.58826L7.8431 1.61917C4.43686 1.77761 1.74487 4.59006 1.74487 8.01216C1.74487 11.5468 4.61025 14.4122 8.14487 14.4122C10.6435 14.4122 12.8812 12.9669 13.9317 10.7483L14.2166 10.1467C14.3111 9.94705 14.2259 9.70855 14.0262 9.61401C13.9671 9.58599 13.9019 9.57293 13.8365 9.57596L13.1716 9.60679C13.0963 9.61028 13.0207 9.61204 12.9449 9.61204C10.2939 9.61204 8.14487 7.463 8.14487 4.81204C8.14487 4.09239 8.30282 3.39654 8.60358 2.76011ZM6.69367 3.43444L6.64479 3.68002C6.57862 4.05063 6.54487 4.42907 6.54487 4.81204L6.54792 5.01138C6.63897 7.98736 8.76168 10.452 11.5759 11.0653L11.8089 11.1112L11.7384 11.1954C10.846 12.2025 9.55068 12.8122 8.14487 12.8122C5.49391 12.8122 3.34487 10.6631 3.34487 8.01216C3.34487 5.8735 4.7471 4.05209 6.69367 3.43444Z" fill="#1A1C1F"/>
</g>
<defs>
<clipPath id="clip0_185_832">
<rect width="16" height="16" fill="white"/>
</clipPath>
</defs>
</svg>

<svg xmlns="http://www.w3.org/2000/svg" width="16" height="16" fill="none"><g clip-path="url(#a)"><path fill="#1A1C1F" fill-rule="evenodd" d="m8.604 2.76.284-.601a.4.4 0 0 0-.38-.57l-.665.03a6.4 6.4 0 1 0 6.089 9.13l.285-.602a.4.4 0 0 0-.38-.571l-.665.03q-.114.006-.227.006A4.8 4.8 0 0 1 8.604 2.76m-1.91.674-.05.246q-.099.557-.1 1.132l.004.2a6.4 6.4 0 0 0 5.028 6.053l.233.046-.07.084a4.8 4.8 0 1 1-5.045-7.761" clip-rule="evenodd"/></g><defs><clipPath id="a"><path fill="#fff" d="M0 0h16v16H0z"/></clipPath></defs></svg>
